!!key: tele-40-3-Fan-Ada-3-Flute
!!!COM: Telemann, Georg Philipp
!!!CDT: 1681/03/14-1767/06/25
!!!CBL: Magdeburg
!!!CDL: Hamburg
!!!CNT: German
!!!TWV: 40:3
!!!TWV-genre: 40
!!!TWV-work: 3
!!!OPR: 12 Fantasias for transverse flute without bass
!!!OTL: Fantasia 2
!!!OMD: Adagio
!!!OMV: 3
!!!ODT: ca. 1732–1733
!!!AST: Late Baroque
!!!AGN: Fantasia
!!!AMT: Simple quadruple
!!!AIN: Transverse flute
**kern
*ICww
*Iflt
*clefG2
*k[]
*C:
*M4/4
*met(C)
=1-
[4cc
24ccLL]
24gg
24ff
24ee
24dd
24ccJJ
16.ddLL
32f#XJk
[8gJ
24gLL]
24dd
24cc
24b
24a
24gLL
=2
16.eeLL
32bJk
[8ccJ
24ccLL]
24gg
24ffn
24ee
24dd
24ccJJ
16.ddLL
32f#XJk
8gJ
8r
16.ddLL
32eeJJk
!!LO:LB:g=original
=3
16ffnLL
16a
16g
16fJJ
16ffLL
16b
16a
16gJJ
16.ffLL
32ddJk
8eeJ
8r
16.eeLL
32ff#XJJk
=4
16ggLL
16b
16a
16gJJ
16ggLL
16cc#X
16b
16aJJ
16.ggLL
32eeJk
8ffnJ
16r
16ggLL
16gg
32ffL
32ggJJJ
!!LO:LB:g=original
=5
8aaL
16.fL
32aaJJk
16fLL
16ff
16ff
32eeL
32ffJJJ
8ggL
16.eL
32ggJJk
16eLL
16ee
16ee
32ddL
32eeJJJ
=6
8ffL
16.dL
32ffJJk
16dLL
16dd
16dd
32ccL
32ddJJJ
16eeLL
32ddJ
32ccJJJ
16ffLL
32eeJ
32ddJJJ
16ggLL
16e
16aa
16fJJ
!!LO:LB:g=original
=7
16bLL
32aL
32gJ
16cc
16ffJJ
8.ddL
16ccJ
16.ccLL
32gJk
8ee-XJ
24r
24f#XLL
24g
24a
24g
24f#JJ
=8
16.ccLL
32aJk
8ee-XJ
24r
24f#XLL
24g
24a
24g
24f#JJ
16.ee-LL
32ccJk
8aaJ
16r
16ee-LL
16dd
16ccJJ
=9
32bLLL
32gg
32aa
32bbJ
16.ccc
32ccJJk
16gL
8.ddJ
4cc
4r
==
*-
!!!RTL1: G. PH. Telemann: Twelve Fantasias for Flute without Bass TWV 40:2-13
!!!RPN1: D'Arcangelo, Rita
!!!RMM1: Da Vinci Classics
!!!RC#1: DV-C00440
!!!RRD1: 2022
!!!RLC1: Andreaskirche, Berlin, Germany
!!!RDT1: 16 September 2020, 17 September 2020
!!!RT#1: 2
!!!RTL2: The Telemann Files: 12 Fantasies for Solo Flute
!!!RPN2: Choi, Jasmine
!!!RMM2: Austrian Gramophone
!!!RC#2: AG0001
!!!RRD2: February 2015
!!!RLC2: LeFrak Hall, Queens, USA
!!!RDT2: 9 June 2014, 10 June 2014
!!!RT#2: 2
!!!RTL3: Georg Philipp Telemann: Twelve Fantasies for Flute
!!!RPN3: Robertello, Thomas
!!!RMM3: Delos
!!!RC#3: DE3396
!!!RRD3: 1 June 2009
!!!RLC3: Clear Creek Recording, Keene, California
!!!RDT3: Unknown
!!!RT#3: 2
